!!!SOCIAL_FUNCTION:	songs of a medicine-man
!!!PDT:	1936
!!!OTL: No_25_My_Grandfather_Gave_Me_Everything.krn
!!!REG: Oklahoma and Montana
!!!LANG: Tone
!!!LING_GROUP: Algonquin
**kern
*staff1
=1-
*clefF4
*k[f#c#]
*M2/4
8e\L
16d\L
16d\JJ
4d\
=2
8d\L
16d\L
16d\JJ
8d\
8r
=3
8.d\L
16A\Jk
4A\
=4
8A\L
16A\L
16A\JJ
8A\
8r
=5
8A\L
16G\L
16G\JJ
4G\
=6
8.G\L
16G\Jk
8G\
8r
=7
(8.G\L
16E\Jk)
4E\
=8
8E\L
16E\L
16E\JJ
(4E\
=9
8.D\L)
16D\Jk
8D\
8r
=10
8.D\L
16D\Jk
4D\
=11
8.D\L
16D\Jk
8D\
8r
=12
8A\L
16G\L
16G\JJ
4G\
=13
8.G\L
16G\Jk
8G\L
16G\Jk
16r
=14
8.G\L
16E\Jk
8E\
8r
=15
8.E\L
16E\Jk
8E\L
(8E\J
=16
8.D\L)
16D\Jk
4D\
=17
8.D\L
16D\Jk
8D\
8r
=18
8E\L
16D\L
16D\JJ
4D\
=19
8.D\L
16D\Jk
8D\L
16D\Jk
16r
=20
8E\L
16D\L
16D\JJ
4D\
=21
8.E\L
16D\Jk
4D\
=22
4AA/
8AA/
8r
==
*-
